ion/transgender-sharp.svg

<svg viewBox="0 0 512 512" xmlns="http://www.w3.org/2000/svg"><path d="M480 448.94l-48.94-49.08L464 366.92l-31.1-31.11 -32.9 32.9 -23.55-23.61v0c39.31-53 39.27-125.5-.1-178.45l59.55-59.56V144h44V32h-112v44h36.87l-59.55 59.55h-.001c-53.01-39.42-125.59-39.42-178.59 0l-7.55-7.55 33-33 -31.08-31.12 -33 33L107.08 76h36.91V32h-112v112h44v-36.91L96.86 128l-33 33 31.13 31.05 33-33 7.56 7.57h-.001c-19.23 25.8-29.6 57.13-29.56 89.32 0 82.69 67.27 150 150 150h0c32.23.03 63.61-10.38 89.44-29.67l23.51 23.58 -33.14 33.05 31.11 31.1 33-33 48.9 49Zm-330-193v0c0-58.55 47.45-106 106-106 58.54 0 106 47.45 106 106 0 58.54-47.46 106-106 106v0c-58.53-.05-105.96-47.48-106-106Z"/></svg>

<svg xmlns="http://www.w3.org/2000/svg" width="512" height="512" viewBox="0 0 512 512"><path d="M480,448.94l-48.94-49.08L464,366.92l-31.1-31.11L400,368.71,376.45,345.1a149.64,149.64,0,0,0-.1-178.45l59.55-59.56V144h44V32h-112V76h36.87l-59.55,59.55a149.65,149.65,0,0,0-178.59,0L159.08,128l33-33L161,63.88l-33,33L107.09,76H144V32H32V144H76V107.09L96.87,128l-33,33L95,192.05l33-33,7.56,7.57A149.18,149.18,0,0,0,106,255.94c0,82.69,67.27,150,150,150a149.12,149.12,0,0,0,89.44-29.67l23.51,23.58L335.81,432.9,366.92,464l33-33,48.9,49Zm-330-193a106,106,0,1,1,106,106A106.09,106.09,0,0,1,150,255.94Z"/></svg>
